brandFactory_export/2.Regular/Regalo _2Regular.svg

<?xml version="1.0" encoding="UTF-8"?>
<svg width="24px" height="24px" viewBox="0 0 24 24" version="1.1" xmlns="http://www.w3.org/2000/svg" xmlns:xlink="http://www.w3.org/1999/xlink">
    <title>2.Regular/Regalo _2Regular</title>
    <g id="Symbols" stroke="none" stroke-width="1" fill="none" fill-rule="evenodd">
        <g id="2.Regular/Regalo-_2Regular" fill="#5CB615" fill-rule="nonzero">
            <path d="M22.0840336,11.2268908 C22.0840336,11.4823529 21.9159664,11.6739496 21.8621849,11.6907563 L12.5142857,11.6907563 L12.5142857,7.25042017 L21.8285714,7.24705882 C21.902521,7.27394958 22.0840336,7.48235294 22.0840336,7.71428571 L22.0840336,11.2268908 L22.0840336,11.2268908 Z M20.312605,22.1277311 L12.5176471,22.1277311 L12.5176471,13.1831933 L20.5344538,13.1831933 L20.5344538,21.6638655 C20.5310924,21.9193277 20.3630252,22.1109244 20.312605,22.1277311 Z M3.01848739,21.6638655 L3.01848739,13.1831933 L10.9781513,13.1831933 L10.9781513,22.1277311 L3.25714286,22.1277311 C3.18655462,22.107563 3.01848739,21.9193277 3.01848739,21.6638655 Z M1.5394958,7.71092437 C1.5394958,7.4789916 1.71764706,7.27058824 1.76134454,7.24705882 L10.9815126,7.24705882 L10.9815126,11.687395 L1.77478992,11.687395 C1.70420168,11.6605042 1.54285714,11.4756303 1.54285714,11.2235294 L1.54285714,7.71092437 L1.5394958,7.71092437 Z M5.87563025,2.47058824 C6.3092437,1.82184874 6.81680672,1.49915966 7.39159664,1.49915966 C7.76470588,1.49915966 8.17142857,1.63697479 8.60168067,1.9092437 C9.47563025,2.4605042 10.3663866,4.3697479 10.7966387,5.57983193 C9.49243697,5.68403361 7.31764706,5.67058824 6.45378151,5.12268908 C5.90588235,4.77647059 5.57647059,4.37647059 5.48235294,3.9394958 C5.38487395,3.49579832 5.51932773,3.00168067 5.87563025,2.47058824 Z M14.9512605,1.90588235 C16.0470588,1.21344538 16.9647059,1.40168067 17.6773109,2.46722689 C18.0336134,3.00168067 18.1680672,3.49243697 18.0705882,3.93277311 C17.9764706,4.3697479 17.6470588,4.7697479 17.0991597,5.11596639 C16.2319328,5.66386555 14.0571429,5.67731092 12.7529412,5.57310924 C13.1865546,4.36638655 14.0773109,2.4605042 14.9512605,1.90588235 L14.9512605,1.90588235 Z M21.8655462,5.75462185 L18.6991597,5.75462185 C19.1462185,5.30756303 19.4554622,4.8 19.5764706,4.24537815 C19.7579832,3.41512605 19.5462185,2.5210084 18.9680672,1.65378151 C17.7882353,-0.11092437 15.9294118,-0.494117647 14.1142857,0.655462185 C13.1226891,1.28403361 12.3226891,2.68907563 11.7781513,3.91596639 C11.2369748,2.68907563 10.4336134,1.28067227 9.44201681,0.655462185 C7.62689076,-0.494117647 5.76806723,-0.11092437 4.58823529,1.65378151 C4.01008403,2.5210084 3.79831933,3.41512605 3.97983193,4.24537815 C4.10084034,4.8 4.41008403,5.30756303 4.85378151,5.75462185 L1.76134454,5.75462185 C0.840336134,5.75462185 0.00336134454,6.68907563 0.00336134454,7.71428571 L0.00336134454,11.2268908 C0.00336134454,12.1815126 0.658823529,12.9983193 1.48235294,13.1529412 L1.48235294,21.6638655 C1.48235294,22.7260504 2.28907563,23.6235294 3.24033613,23.6235294 L20.312605,23.6235294 C21.2638655,23.6235294 22.0705882,22.7260504 22.0705882,21.6638655 L22.0705882,13.1596639 C22.9310924,13.0386555 23.6235294,12.2084034 23.6235294,11.2235294 L23.6235294,7.71092437 C23.6235294,6.68571429 22.7865546,5.75462185 21.8655462,5.75462185 Z" id="Regalo-_2Regular"></path>
        </g>
    </g>
</svg>

<svg width="24" height="24" viewBox="0 0 24 24" xmlns="http://www.w3.org/2000/svg"><path d="M22.084 11.227c0 .255-.168.447-.222.464h-9.348V7.25l9.315-.004c.074.027.255.235.255.467v3.513zm-1.771 10.9h-7.795v-8.944h8.016v8.48c-.003.256-.171.448-.221.465zm-17.295-.463v-8.48h7.96v8.944h-7.72c-.071-.02-.24-.209-.24-.464zM1.54 7.71c0-.232.179-.44.222-.464h9.22v4.44H1.776c-.07-.026-.232-.211-.232-.463V7.71h-.004zm4.337-5.24c.433-.65.94-.972 1.516-.972.373 0 .78.138 1.21.41.874.552 1.764 2.46 2.195 3.67-1.305.105-3.48.092-4.343-.456-.548-.347-.878-.747-.972-1.184-.097-.443.037-.937.394-1.468zm9.075-.565c1.096-.693 2.014-.504 2.726.561.357.535.491 1.025.394 1.466-.095.437-.424.837-.972 1.183-.867.548-3.042.561-4.346.457.434-1.207 1.324-3.112 2.198-3.667zm6.915 3.849h-3.167c.447-.447.756-.955.877-1.51.182-.83-.03-1.724-.608-2.591-1.18-1.765-3.039-2.148-4.854-.999-.991.629-1.791 2.034-2.336 3.261-.541-1.227-1.344-2.635-2.336-3.26-1.815-1.15-3.674-.767-4.854.998-.578.867-.79 1.761-.608 2.591.12.555.43 1.063.874 1.51H1.76c-.92 0-1.758.934-1.758 1.96v3.512c0 .955.656 1.771 1.48 1.926v8.51c0 1.063.806 1.96 1.757 1.96h17.073c.95 0 1.758-.897 1.758-1.96V13.16c.86-.121 1.553-.952 1.553-1.936V7.71c0-1.025-.837-1.956-1.758-1.956z" fill="#5CB615" fill-rule="nonzero"/></svg>
